X:1
T:Title
%%score ( 1 2 ) { 3 | 4 }
L:1/8
Q:1/4=95
M:4/4
K:Ab
V:1 treble nm="Grand Piano, Soprano"
V:2 treble 
V:3 bass nm="Choir Pad, Lead Me to Jesus"
V:4 bass 
V:1
 [Ec]2 [Ec][Ec] [Ec]2 [EB][EA] | [FA]2 [EG][DF] [DF] .[CE]3 | [FA]2 [FA][FA] [FA]2 G[FA] | %3
w: By~Tullius~Clinton~O’Kane * * * * *|||
 [EB]2 [=DB]2 [EB]4 | [Ec]2 [Ec][Ec] [Ec]2 [EB][EA] | [FA]2 [EG][DF] [DF] .[CE]3 | %6
w: |||
 [EA]2 [FA][FA] [EA]2 [EG][EA] | [GB]2 AG [EA]4 | [Ec]2 [Ec]>[Ec] [Fd]2 [Ec]2 | %9
w: |||
 [Ae]2 [Ae]>[Ac] [GB]4 | [GB]2 [GB]>[GB] [Ec]2 [EB]2 | [=DB]2 [DA]>[DF] E2 _D2 | %12
w: |||
 [CA]>[DG] [EA]2 [GB]>A [GB]2 | [Ec]>[=EB] [Fc]2 [Fd]>[Fd] [Fd]2 | [Ec]4 [Ec]2 [DB]2 | %15
w: |||
 [DB]4 [CA]4- | [CA]4 z4 |] %17
w: ||
V:2
 x8 | x8 | x8 | x8 | x8 | x8 | x8 | z2 E2 z4 | x8 | x8 | x8 | x8 | x8 | x8 | x8 | x8 | x8 |] %17
V:3
 A,2 A,A, A,2 DC | A,2 A,A, A, .A,3 | C2 CC C2 E[K:bass]B, | G,2 A,2 G,4 | A,2 A,A, A,2 DC | %5
 A,2 A,A, A, .A,3 | C2 DD E2 DC | D2 C[K:bass]B, C4 | A,2 A,>A, A,2 A,2 | C2 C>E E4 | %10
 E2 D>[K:bass]B, A,2 G,2 | F,2 F,>A, G,4 | A,>B,[K:treble] C2 D>C D2 | E>C[K:bass] A,2 A,>A, A,2 | %14
 A,4 A,2 G,2 | G,4 A,4- | A,4 z4 |] %17
V:4
 A,,2 A,,A,, A,,2 B,,C, | D,2 D,D, A,, .A,,3 | F,2 F,F, F,2 E,E, | E,2 B,,2 E,4 | %4
 A,,2 A,,A,, A,,2 B,,C, | D,2 D,D, A,, .A,,3 | A,,2 D,D, C,2 B,,A,, | E,2 [E,,E,]2 A,,4 | z8 | %9
 A,2 A,>A, E,4 | E,2 E,>E, E,2 E,2 | B,,2 B,,>B,, E,4 | A,,>A,, A,,2 E,>E, E,2 | %13
 A,>G, F,2 D,>D, D,2 | E,4 E,2 E,2 | E,4 A,,4- | A,,4 z4 |] %17

